images/svg/stars.svg

<svg width="140" height="37" fill="none" xmlns="http://www.w3.org/2000/svg"><path d="m9 10 2.1 6.5H18l-5.6 4 2.2 6.5L9 23l-5.6 4 2.2-6.5-5.6-4h6.9L9 10ZM33 10l2.1 6.5H42l-5.6 4 2.2 6.5-5.6-4-5.6 4 2.2-6.5-5.6-4h6.9L33 10ZM57 10l2.1 6.5H66l-5.6 4 2.2 6.5-5.6-4-5.6 4 2.2-6.5-5.6-4h6.9L57 10ZM81 10l2.1 6.5H90l-5.6 4 2.2 6.5-5.6-4-5.6 4 2.2-6.5-5.6-4h6.9L81 10Z" fill="#83B3D3"/></svg>

<svg width="140" height="37" viewBox="0 0 140 37" fill="none" xmlns="http://www.w3.org/2000/svg">
<path d="M9 10L11.1 16.5H18L12.4 20.5L14.6 27L9 23L3.4 27L5.6 20.5L0 16.5H6.9L9 10Z" fill="#83B3D3"/>
<path d="M33 10L35.1 16.5H42L36.4 20.5L38.6 27L33 23L27.4 27L29.6 20.5L24 16.5H30.9L33 10Z" fill="#83B3D3"/>
<path d="M57 10L59.1 16.5H66L60.4 20.5L62.6 27L57 23L51.4 27L53.6 20.5L48 16.5H54.9L57 10Z" fill="#83B3D3"/>
<path d="M79 10L81.1 16.5H88L82.4 20.5L84.6 27L79 23L73.4 27L75.6 20.5L70 16.5H76.9L79 10Z" fill="#83B3D3"/>
<path d="M101 10L103.1 16.5H110L104.4 20.5L106.6 27L101 23L95.4 27L97.6 20.5L92 16.5H98.9L101 10Z" fill="#83B3D3"/>
</svg>
